images/pictures/delivery-man.svg

<svg width="136" height="165" viewBox="0 0 136 165" fill="none" xmlns="http://www.w3.org/2000/svg">
<g clip-path="url(#clip0_16_6959)">
<path d="M93.1329 39.2671C101.254 39.2671 108.078 33.7251 110.033 26.2181L115.5 27.0321C115.607 27.0481 115.715 27.0561 115.82 27.0561C116.871 27.0561 117.791 26.2861 117.951 25.2161C118.127 24.0381 117.312 22.9401 116.135 22.7651L110.594 21.9401C110.596 21.8941 110.598 21.8491 110.598 21.8021C110.598 21.6201 110.592 21.4401 110.584 21.2601C110.584 21.2601 110.133 14.7421 109.51 12.0231C108.889 9.30406 106.975 8.72706 106.975 8.72706C97.2049 6.51506 87.2029 6.28906 84.5999 6.28906C81.9969 6.28906 81.4419 7.62106 81.4419 7.62106L78.2919 12.6171L78.2819 12.6141C78.2059 12.7361 78.136 12.8591 78.063 12.9821L78.0359 13.0251C76.5339 15.6051 75.6689 18.6011 75.6689 21.8021C75.6679 31.4481 83.4879 39.2671 93.1329 39.2671V39.2671Z" fill="white"/>
<path d="M131.535 78.576V78.574L104.793 76.406L95.5469 55.294C95.5469 55.294 95.0859 52.52 89.5389 46.818C83.9899 41.116 72.7399 43.428 72.7399 43.428C72.7399 43.428 48.8539 47.897 40.9949 49.746C33.1349 51.596 32.8269 59.609 32.8269 59.609L32.1949 64.128L17.0169 61.187C16.8259 61.15 16.6359 61.132 16.4489 61.132C15.0419 61.132 13.7779 62.132 13.5009 63.561L6.08995 101.803C5.77595 103.423 6.84395 105.005 8.46495 105.319L59.6609 115.242C59.7759 115.264 59.8909 115.266 60.0069 115.275H60.0089C59.2809 115.379 58.7179 115.24 58.7179 115.24L49.3179 113.391L46.2359 130.496L22.6759 150.859C20.9749 152.22 19.8839 154.312 19.8839 156.66C19.8839 160.764 23.2099 164.09 27.3129 164.09C29.3479 164.09 31.1909 163.272 32.5329 161.945C32.5329 161.945 60.2579 139.895 62.1079 138.354C63.9579 136.814 64.8809 134.501 64.8809 134.501C64.8809 134.501 69.422 120.553 70.66 117.627C71.508 115.623 75.5919 116.548 75.5919 116.548L98.4769 125.179L106.092 154.241C106.174 154.871 106.334 155.475 106.565 156.045H106.567C107.665 158.773 110.337 160.699 113.456 160.699C117.56 160.699 120.886 157.372 120.886 153.269C120.886 152.67 120.814 152.09 120.679 151.533C119.837 146.568 116.075 124.487 115.118 119.707C114.04 114.313 110.497 112.773 110.497 112.773C110.497 112.773 89.2289 101.215 87.8429 100.444C86.4559 99.674 86.7649 97.67 86.7649 97.67L90.6949 83.339L93.4679 89.195C93.4679 89.195 95.0869 92.469 97.5519 92.586L130.909 93.406C135.013 93.406 138.339 90.08 138.339 85.975C138.338 82.086 135.346 78.896 131.535 78.576V78.576ZM60.1039 63.307L58.3149 69.187L68.2129 71.106L47.9989 67.189L48.5469 64.693L60.1039 63.307ZM57.8549 108.78L12.5509 99.999L18.8209 67.646L31.3629 70.077L29.7449 81.644L29.1049 86.05C29.0999 86.076 29.0969 86.106 29.0929 86.132L29.0749 86.259H29.0769C29.0369 86.571 29.0139 86.888 29.0139 87.21C29.0139 91.314 32.3409 94.639 36.4439 94.639C40.5469 94.639 43.8729 91.314 43.8729 87.21C43.8729 86.892 43.8519 86.58 43.8119 86.273L46.7129 73.05L64.1259 76.424L57.8549 108.78Z" fill="white"/>
<path d="M25.0498 17.5083H63.0768C64.1768 17.5083 65.0768 16.6123 65.0768 15.5183C65.0768 14.4243 64.1768 13.5283 63.0768 13.5283H25.0498C23.9498 13.5283 23.0498 14.4243 23.0498 15.5183C23.0498 16.6123 23.9498 17.5083 25.0498 17.5083V17.5083Z" fill="white"/>
<path d="M38.0801 23.5249C36.9801 23.5249 36.0801 24.4209 36.0801 25.5149C36.0801 26.6089 36.9801 27.5049 38.0801 27.5049H61.0391C62.1391 27.5049 63.0391 26.6089 63.0391 25.5149C63.0391 24.4199 62.1391 23.5249 61.0391 23.5249H38.0801Z" fill="white"/>
<path d="M87.0978 33.2319C95.2188 33.2319 102.043 27.6899 103.998 20.1829L109.465 20.9969C109.572 21.0129 109.68 21.0209 109.785 21.0209C110.836 21.0209 111.756 20.2509 111.916 19.1809C112.092 18.0029 111.277 16.9049 110.1 16.7299L104.559 15.9049C104.561 15.8589 104.563 15.8139 104.563 15.7669C104.563 15.5849 104.557 15.4049 104.549 15.2249C104.549 15.2249 104.098 8.70691 103.475 5.98791C102.854 3.26891 100.94 2.69191 100.94 2.69191C91.1698 0.479906 81.1678 0.253906 78.5638 0.253906C75.9598 0.253906 75.4058 1.58591 75.4058 1.58591L72.2558 6.58191L72.2458 6.57891C72.1698 6.69991 72.0998 6.82391 72.0268 6.94691L71.9998 6.98991C70.4978 9.56991 69.6328 12.5659 69.6328 15.7669C69.6328 25.4129 77.4528 33.2319 87.0978 33.2319V33.2319Z" fill="#3A3A3A"/>
<path d="M125.5 72.5408V72.5388L98.7582 70.3708L89.5122 49.2588C89.5122 49.2588 89.0512 46.4848 83.5042 40.7828C77.9552 35.0808 66.7052 37.3928 66.7052 37.3928C66.7052 37.3928 42.8192 41.8618 34.9602 43.7098C27.1002 45.5598 26.7922 53.5728 26.7922 53.5728L23.7102 75.6088L23.0702 80.0148C23.0652 80.0408 23.0622 80.0708 23.0582 80.0968L23.0402 80.2238H23.0422C23.0022 80.5358 22.9792 80.8528 22.9792 81.1748C22.9792 85.2788 26.3062 88.6038 30.4092 88.6038C34.5122 88.6038 37.8382 85.2788 37.8382 81.1748C37.8382 80.8568 37.8172 80.5448 37.7772 80.2378L42.5112 58.6568L54.0682 57.2708L52.2792 63.1508L62.1772 65.0698C63.7972 65.3828 64.8652 66.9658 64.5522 68.5868L57.1402 106.83C56.8632 108.26 55.5992 109.26 54.1922 109.26C54.1202 109.26 54.0462 109.244 53.9722 109.239C53.2442 109.343 52.6812 109.204 52.6812 109.204L43.2812 107.355L40.1992 124.46L16.6392 144.823C14.9382 146.184 13.8472 148.276 13.8472 150.624C13.8472 154.728 17.1732 158.054 21.2762 158.054C23.3112 158.054 25.1542 157.236 26.4962 155.909C26.4962 155.909 54.2212 133.859 56.0712 132.318C57.9212 130.778 58.8442 128.465 58.8442 128.465C58.8442 128.465 63.3852 114.517 64.6232 111.591C65.4712 109.587 69.5552 110.512 69.5552 110.512L92.4402 119.143L100.055 148.205C100.137 148.835 100.297 149.439 100.528 150.009H100.53C101.628 152.737 104.3 154.663 107.419 154.663C111.523 154.663 114.849 151.336 114.849 147.233C114.849 146.634 114.777 146.054 114.642 145.497C113.8 140.532 110.038 118.451 109.081 113.671C108.003 108.277 104.46 106.737 104.46 106.737C104.46 106.737 83.1932 95.1818 81.8072 94.4098C80.4202 93.6398 80.7292 91.6358 80.7292 91.6358L84.6592 77.3048L87.4322 83.1608C87.4322 83.1608 89.0512 86.4348 91.5162 86.5518L124.873 87.3718C128.977 87.3718 132.303 84.0458 132.303 79.9408C132.303 76.0508 129.311 72.8598 125.5 72.5408V72.5408Z" fill="#3A3A3A"/>
<path d="M53.9708 109.644H53.9728C54.0458 109.65 54.1198 109.665 54.1928 109.665C55.5998 109.665 56.8638 108.665 57.1408 107.235L64.5528 68.992C64.8658 67.371 63.7978 65.789 62.1778 65.475L41.9638 61.558L40.6778 67.42L58.0908 70.794L51.8198 103.148L6.51579 94.369L12.7858 62.016L25.3278 64.447L26.1598 58.497L10.9818 55.555C10.7908 55.518 10.6008 55.5 10.4138 55.5C9.00679 55.5 7.74279 56.5 7.46579 57.929L0.0547894 96.173C-0.259211 97.793 0.808789 99.375 2.42979 99.689L53.6258 109.612C53.7398 109.634 53.8548 109.635 53.9708 109.644V109.644Z" fill="#F0C42E"/>
<path d="M59.0416 9.48219C59.0416 10.5772 58.1416 11.4722 57.0416 11.4722H19.0146C17.9146 11.4722 17.0146 10.5762 17.0146 9.48219C17.0146 8.38819 17.9146 7.49219 19.0146 7.49219H57.0416C58.1416 7.49319 59.0416 8.38819 59.0416 9.48219Z" fill="#F0C52E"/>
<path d="M57.0039 19.4802C57.0039 20.5742 56.1039 21.4702 55.0039 21.4702H32.0439C30.9439 21.4702 30.0439 20.5742 30.0439 19.4802C30.0439 18.3852 30.9439 17.4902 32.0439 17.4902H55.0029C56.1039 17.4902 57.0039 18.3862 57.0039 19.4802Z" fill="#F0C52E"/>
</g>
<defs>
<clipPath id="clip0_16_6959">
<rect width="136" height="164" fill="white" transform="translate(0 0.5)"/>
</clipPath>
</defs>
</svg>

<svg width="136" height="165" fill="none" xmlns="http://www.w3.org/2000/svg"><g clip-path="url(#a)"><path d="M93.13 39.27c8.12 0 14.95-5.54 16.9-13.05l5.47.81a2.16 2.16 0 0 0 .64-4.27l-5.55-.82v-.68s-.46-6.52-1.08-9.24c-.62-2.72-2.54-3.3-2.54-3.3A111.85 111.85 0 0 0 84.6 6.3c-2.6 0-3.16 1.33-3.16 1.33l-3.15 5-.23.36-.02.05a17.46 17.46 0 0 0 15.1 26.24ZM131.53 78.58 104.8 76.4l-9.24-21.12s-.46-2.77-6.01-8.47c-5.55-5.7-16.8-3.4-16.8-3.4s-23.89 4.48-31.75 6.33c-7.86 1.85-8.16 9.86-8.16 9.86l-.64 4.52-15.17-2.94a2.99 2.99 0 0 0-3.52 2.37L6.1 101.8a3 3 0 0 0 2.37 3.52l51.2 9.92.35.04c-.73.1-1.3-.04-1.3-.04l-9.4-1.85-3.07 17.1-23.56 20.37a7.41 7.41 0 0 0 4.63 13.23 7.4 7.4 0 0 0 5.22-2.15s27.73-22.04 29.58-23.59c1.85-1.54 2.77-3.85 2.77-3.85s4.54-13.95 5.78-16.87c.85-2 4.93-1.08 4.93-1.08l22.89 8.63 7.61 29.06a7.43 7.43 0 1 0 14.59-2.7c-.84-4.97-4.6-27.05-5.56-31.83-1.08-5.4-4.62-6.94-4.62-6.94s-21.27-11.55-22.66-12.33c-1.38-.77-1.08-2.77-1.08-2.77l3.93-14.33 2.78 5.85s1.62 3.28 4.08 3.4l33.36.82a7.43 7.43 0 0 0 .63-14.83ZM60.1 63.3l-1.79 5.88 9.9 1.92L48 67.19l.55-2.5 11.55-1.38Zm-2.25 45.47L12.55 100l6.27-32.35 12.54 2.43-1.62 11.56-.64 4.41v.08l-.03.13a7.43 7.43 0 1 0 14.74.01l2.9-13.22 17.42 3.37-6.28 32.36ZM25.05 17.5h38.03a2 2 0 0 0 2-1.98 2 2 0 0 0-2-2H25.05a2 2 0 0 0-2 2 2 2 0 0 0 2 1.99ZM38.08 23.52a2 2 0 0 0-2 2 2 2 0 0 0 2 1.98h22.96a2 2 0 0 0 2-1.99 2 2 0 0 0-2-1.99H38.08Z" fill="#fff"/><path d="M87.1 33.23c8.12 0 14.94-5.54 16.9-13.05l5.47.82.31.02a2.16 2.16 0 0 0 .32-4.29l-5.54-.83v-.13l-.01-.55s-.45-6.51-1.08-9.23c-.62-2.72-2.53-3.3-2.53-3.3A111.85 111.85 0 0 0 78.56.25c-2.6 0-3.15 1.34-3.15 1.34l-3.15 5-.01-.01-.22.37-.03.04a17.47 17.47 0 0 0 15.1 26.24ZM125.5 72.54l-26.74-2.17-9.25-21.11s-.46-2.78-6-8.48c-5.55-5.7-16.8-3.39-16.8-3.39s-23.9 4.47-31.75 6.32c-7.86 1.85-8.17 9.86-8.17 9.86l-3.08 22.04-.64 4.4-.01.09-.02.12a7.43 7.43 0 1 0 14.73.01l4.74-21.57 11.56-1.39-1.8 5.88 9.9 1.92a3.01 3.01 0 0 1 2.38 3.52l-7.41 38.24a3.01 3.01 0 0 1-2.95 2.43l-.22-.02c-.73.1-1.29-.04-1.29-.04l-9.4-1.84-3.08 17.1-23.56 20.36a7.41 7.41 0 0 0 4.64 13.23 7.4 7.4 0 0 0 5.22-2.14s27.72-22.05 29.57-23.6a10.93 10.93 0 0 0 2.77-3.84s4.55-13.95 5.78-16.88c.85-2 4.94-1.08 4.94-1.08l22.88 8.63 7.62 29.07a7.43 7.43 0 1 0 14.59-2.7c-.85-4.98-4.61-27.06-5.57-31.84-1.08-5.4-4.62-6.93-4.62-6.93S83.19 95.18 81.81 94.4c-1.39-.77-1.08-2.77-1.08-2.77l3.93-14.34 2.77 5.86s1.62 3.27 4.09 3.4l33.35.81a7.43 7.43 0 0 0 .63-14.83Z" fill="#3A3A3A"/><path d="m53.97 109.64.22.03c1.41 0 2.67-1 2.95-2.44L64.55 69a3.01 3.01 0 0 0-2.37-3.52l-20.22-3.91-1.28 5.86 17.41 3.37-6.27 32.36-45.3-8.78 6.27-32.35 12.54 2.43.83-5.95-15.18-2.95a2.99 2.99 0 0 0-3.51 2.38L.05 96.17a3 3 0 0 0 2.38 3.52l51.2 9.92c.11.02.22.03.34.03Z" fill="#F0C42E"/><path d="M59.04 9.48a2 2 0 0 1-2 2H19.01a2 2 0 0 1-2-2 2 2 0 0 1 2-1.99h38.03a2 2 0 0 1 2 2ZM57 19.48a2 2 0 0 1-2 1.99H32.04a2 2 0 0 1-2-1.99 2 2 0 0 1 2-1.99H55a2 2 0 0 1 2 1.99Z" fill="#F0C52E"/></g><defs><clipPath id="a"><path fill="#fff" transform="translate(0 .5)" d="M0 0h136v164H0z"/></clipPath></defs></svg>
